X: 24
T: Polly's Piano
%R: air, march
B: "The Everyday Song Book", 1927
F: http://www.library.pitt.edu/happybirthday/pdf/The_Everyday_Song_Book.pdf
Z: 2017 John Chambers <jc:trillian.mit.edu>
N: The c note in bar 5 looks more like a rest, but that's clearly wrong.
M: 2/4
L: 1/4
K: C
% - - - - - - - - - - - - - - -
[| c B | A G | G F | E2 | c B | A G | G F | E2 |
w: Pret-ty keys all black and white, Christ-mas brought for my de-light;
%
   D D | E E | F G | E2 | C E | G E | G E | c2 |]
w: Lit-tle tunes on you I play, Tunes that sweet-er grow each day.
% - - - - - - - - - - - - - - -
